webroot/img/platformlogos/instagram.svg

<svg role="img" viewBox="0 0 24 24" xmlns="http://www.w3.org/2000/svg">
  <title>Instagram icon</title>
  <path fill="#E4405F"
    d="M12 0C8.74 0 8.333.015 7.053.072 5.775.132 4.905.333 4.14.63c-.789.306-1.459.717-2.126 1.384S.935 3.35.63 4.14C.333 4.905.131 5.775.072 7.053.012 8.333 0 8.74 0 12s.015 3.667.072 4.947c.06 1.277.261 2.148.558 2.913.306.788.717 1.459 1.384 2.126.667.666 1.336 1.079 2.126 1.384.766.296 1.636.499 2.913.558C8.333 23.988 8.74 24 12 24s3.667-.015 4.947-.072c1.277-.06 2.148-.262 2.913-.558.788-.306 1.459-.718 2.126-1.384.666-.667 1.079-1.335 1.384-2.126.296-.765.499-1.636.558-2.913.06-1.28.072-1.687.072-4.947s-.015-3.667-.072-4.947c-.06-1.277-.262-2.149-.558-2.913-.306-.789-.718-1.459-1.384-2.126C21.319 1.347 20.651.935 19.86.63c-.765-.297-1.636-.499-2.913-.558C15.667.012 15.26 0 12 0zm0 2.16c3.203 0 3.585.016 4.85.071 1.17.055 1.805.249 2.227.415.562.217.96.477 1.382.896.419.42.679.819.896 1.381.164.422.36 1.057.413 2.227.057 1.266.07 1.646.07 4.85s-.015 3.585-.074 4.85c-.061 1.17-.256 1.805-.421 2.227-.224.562-.479.96-.899 1.382-.419.419-.824.679-1.38.896-.42.164-1.065.36-2.235.413-1.274.057-1.649.07-4.859.07-3.211 0-3.586-.015-4.859-.074-1.171-.061-1.816-.256-2.236-.421-.569-.224-.96-.479-1.379-.899-.421-.419-.69-.824-.9-1.38-.165-.42-.359-1.065-.42-2.235-.045-1.26-.061-1.649-.061-4.844 0-3.196.016-3.586.061-4.861.061-1.17.255-1.814.42-2.234.21-.57.479-.96.9-1.381.419-.419.81-.689 1.379-.898.42-.166 1.051-.361 2.221-.421 1.275-.045 1.65-.06 4.859-.06l.045.03zm0 3.678c-3.405 0-6.162 2.76-6.162 6.162 0 3.405 2.76 6.162 6.162 6.162 3.405 0 6.162-2.76 6.162-6.162 0-3.405-2.76-6.162-6.162-6.162zM12 16c-2.21 0-4-1.79-4-4s1.79-4 4-4 4 1.79 4 4-1.79 4-4 4zm7.846-10.405c0 .795-.646 1.44-1.44 1.44-.795 0-1.44-.646-1.44-1.44 0-.794.646-1.439 1.44-1.439.793-.001 1.44.645 1.44 1.439z"/>
</svg>

<?xml version="1.0" encoding="UTF-8" standalone="no"?>
<!DOCTYPE svg PUBLIC "-//W3C//DTD SVG 1.1//EN" "http://www.w3.org/Graphics/SVG/1.1/DTD/svg11.dtd">
<svg width="100%" height="100%" viewBox="0 0 24 24" version="1.1" xmlns="http://www.w3.org/2000/svg" xmlns:xlink="http://www.w3.org/1999/xlink" xml:space="preserve" xmlns:serif="http://www.serif.com/" style="fill-rule:evenodd;clip-rule:evenodd;stroke-linejoin:round;stroke-miterlimit:2;">
    <g transform="matrix(0.958333,0,0,0.958333,0.5,0.5)">
        <path d="M12,0C8.74,0 8.333,0.015 7.053,0.072C5.775,0.132 4.905,0.333 4.14,0.63C3.351,0.936 2.681,1.347 2.014,2.014C1.347,2.681 0.935,3.35 0.63,4.14C0.333,4.905 0.131,5.775 0.072,7.053C0.012,8.333 0,8.74 0,12C0,15.26 0.015,15.667 0.072,16.947C0.132,18.224 0.333,19.095 0.63,19.86C0.936,20.648 1.347,21.319 2.014,21.986C2.681,22.652 3.35,23.065 4.14,23.37C4.906,23.666 5.776,23.869 7.053,23.928C8.333,23.988 8.74,24 12,24C15.26,24 15.667,23.985 16.947,23.928C18.224,23.868 19.095,23.666 19.86,23.37C20.648,23.064 21.319,22.652 21.986,21.986C22.652,21.319 23.065,20.651 23.37,19.86C23.666,19.095 23.869,18.224 23.928,16.947C23.988,15.667 24,15.26 24,12C24,8.74 23.985,8.333 23.928,7.053C23.868,5.776 23.666,4.904 23.37,4.14C23.064,3.351 22.652,2.681 21.986,2.014C21.319,1.347 20.651,0.935 19.86,0.63C19.095,0.333 18.224,0.131 16.947,0.072C15.667,0.012 15.26,0 12,0ZM12,2.16C15.203,2.16 15.585,2.176 16.85,2.231C18.02,2.286 18.655,2.48 19.077,2.646C19.639,2.863 20.037,3.123 20.459,3.542C20.878,3.962 21.138,4.361 21.355,4.923C21.519,5.345 21.715,5.98 21.768,7.15C21.825,8.416 21.838,8.796 21.838,12C21.838,15.204 21.823,15.585 21.764,16.85C21.703,18.02 21.508,18.655 21.343,19.077C21.119,19.639 20.864,20.037 20.444,20.459C20.025,20.878 19.62,21.138 19.064,21.355C18.644,21.519 17.999,21.715 16.829,21.768C15.555,21.825 15.18,21.838 11.97,21.838C8.759,21.838 8.384,21.823 7.111,21.764C5.94,21.703 5.295,21.508 4.875,21.343C4.306,21.119 3.915,20.864 3.496,20.444C3.075,20.025 2.806,19.62 2.596,19.064C2.431,18.644 2.237,17.999 2.176,16.829C2.131,15.569 2.115,15.18 2.115,11.985C2.115,8.789 2.131,8.399 2.176,7.124C2.237,5.954 2.431,5.31 2.596,4.89C2.806,4.32 3.075,3.93 3.496,3.509C3.915,3.09 4.306,2.82 4.875,2.611C5.295,2.445 5.926,2.25 7.096,2.19C8.371,2.145 8.746,2.13 11.955,2.13L12,2.16ZM12,5.838C8.595,5.838 5.838,8.598 5.838,12C5.838,15.405 8.598,18.162 12,18.162C15.405,18.162 18.162,15.402 18.162,12C18.162,8.595 15.402,5.838 12,5.838ZM12,16C9.79,16 8,14.21 8,12C8,9.79 9.79,8 12,8C14.21,8 16,9.79 16,12C16,14.21 14.21,16 12,16ZM19.846,5.595C19.846,6.39 19.2,7.035 18.406,7.035C17.611,7.035 16.966,6.389 16.966,5.595C16.966,4.801 17.612,4.156 18.406,4.156C19.199,4.155 19.846,4.801 19.846,5.595Z" style="fill:rgb(228,64,95);fill-rule:nonzero;stroke:white;stroke-width:0.42px;"/>
    </g>
</svg>
